svg/color/efx.svg

<?xml version="1.0" encoding="UTF-8" ?>
<!DOCTYPE svg PUBLIC "-//W3C//DTD SVG 1.1//EN" "http://www.w3.org/Graphics/SVG/1.1/DTD/svg11.dtd">
<svg width="250pt" height="250pt" viewBox="0 0 250 250" version="1.1" xmlns="http://www.w3.org/2000/svg">
<g id="#ffffffff">
<path fill="#ffffff" opacity="1.00" d=" M 0.00 0.00 L 250.00 0.00 L 250.00 250.00 L 0.00 250.00 L 0.00 0.00 M 95.06 26.41 C 69.55 37.25 48.62 58.35 38.05 83.98 C 27.69 108.84 27.40 137.70 37.08 162.82 C 45.46 184.69 61.26 203.62 81.30 215.75 C 103.49 229.32 130.85 234.48 156.39 229.28 C 156.75 221.72 156.51 214.15 156.57 206.58 C 165.06 203.97 173.50 200.88 180.98 196.01 C 199.30 184.63 212.91 165.97 218.08 145.04 C 223.20 125.12 220.49 103.35 210.79 85.23 C 202.30 69.06 188.35 55.91 171.81 48.21 C 170.64 47.70 169.41 47.33 168.16 47.08 C 167.55 50.68 167.54 54.38 167.98 58.00 C 169.90 60.52 173.19 61.45 175.71 63.26 C 198.83 77.71 212.29 105.98 208.83 133.03 C 206.86 150.09 198.57 166.31 185.98 177.97 C 173.55 189.58 156.97 196.63 139.98 197.45 C 125.21 198.16 110.24 194.23 97.75 186.29 C 84.08 177.58 73.30 164.31 67.90 149.00 C 62.84 134.84 62.32 119.10 66.49 104.64 C 71.03 88.68 81.24 74.40 94.85 64.92 C 109.32 54.70 127.75 49.82 145.34 52.43 C 145.34 56.07 145.34 59.72 145.27 63.37 C 125.89 60.65 105.43 67.70 92.00 81.96 C 79.19 95.24 72.71 114.53 75.43 132.84 C 78.65 160.27 102.74 184.23 130.56 185.72 C 130.79 174.62 131.08 163.46 130.46 152.39 C 126.75 150.56 122.61 149.45 119.43 146.68 C 110.57 139.99 106.42 127.78 109.60 117.11 C 112.20 107.18 120.80 99.64 130.57 97.06 C 130.80 93.45 130.82 89.84 130.55 86.24 C 123.67 86.44 117.30 89.85 111.98 94.00 C 104.21 100.11 99.36 109.21 97.47 118.82 C 93.78 118.83 90.08 118.85 86.39 118.65 C 87.86 108.48 92.04 98.63 99.01 91.00 C 108.93 79.78 124.04 73.37 139.01 74.30 C 144.55 74.25 149.79 76.25 155.14 77.38 C 157.07 76.27 156.43 73.86 156.60 72.04 C 156.48 62.99 156.69 53.95 156.52 44.90 C 156.74 43.67 155.94 42.67 154.73 42.50 C 142.80 39.39 130.32 40.34 118.25 42.01 C 117.96 34.70 118.67 27.36 117.70 20.09 C 109.82 20.66 102.32 23.48 95.06 26.41 M 142.46 97.08 C 152.88 99.73 161.45 108.10 163.93 118.62 C 160.14 118.87 156.33 118.85 152.53 118.77 C 150.86 115.79 149.07 112.69 146.13 110.78 C 140.92 107.09 133.61 106.64 128.11 109.97 C 120.65 114.01 117.39 124.16 121.25 131.75 C 124.73 139.83 135.11 143.81 143.11 140.14 C 147.57 138.42 150.50 134.46 152.62 130.36 C 156.39 130.30 160.16 130.27 163.92 130.51 C 161.53 141.04 152.97 149.52 142.52 152.07 C 142.21 155.65 142.17 159.25 142.41 162.84 C 147.46 163.01 152.17 160.88 156.44 158.42 C 164.85 153.48 171.28 145.30 174.06 135.96 C 177.90 123.58 175.05 109.34 166.60 99.48 C 160.56 92.35 152.00 86.98 142.56 86.09 C 142.16 89.74 142.18 93.42 142.46 97.08 Z" />
<path fill="#ffffff" opacity="1.00" d=" M 68.30 58.27 C 78.86 47.30 92.13 38.99 106.58 34.16 C 106.84 38.04 106.84 41.92 106.73 45.81 C 87.58 53.25 71.18 67.64 61.84 85.99 C 56.44 96.13 53.64 107.42 52.46 118.79 C 48.82 118.83 45.18 118.83 41.53 118.81 C 42.78 96.28 52.50 74.37 68.30 58.27 Z" />
<path fill="#ffffff" opacity="1.00" d=" M 130.37 124.97 C 131.39 122.06 133.27 118.48 136.98 119.19 C 140.31 118.98 141.59 122.45 142.63 124.96 C 141.34 127.58 139.36 130.70 135.95 130.23 C 133.00 129.99 131.65 127.22 130.37 124.97 Z" />
<path fill="#ffffff" opacity="1.00" d=" M 41.44 130.45 C 45.10 130.30 48.77 130.31 52.44 130.37 C 53.95 147.78 60.45 164.81 71.76 178.22 C 84.76 194.02 103.65 204.94 123.94 207.87 C 130.99 209.07 138.17 208.76 145.29 208.56 C 145.35 212.19 145.35 215.83 145.32 219.47 C 122.46 221.71 98.92 215.27 80.45 201.60 C 57.77 185.18 43.08 158.42 41.44 130.45 Z" />
<path fill="#ffffff" opacity="1.00" d=" M 86.40 130.47 C 90.08 130.29 93.76 130.31 97.45 130.33 C 99.25 138.68 102.89 146.81 109.20 152.74 C 112.11 155.92 116.22 157.62 119.32 160.52 C 119.85 164.29 119.51 168.13 119.38 171.92 C 101.65 165.87 88.59 148.98 86.40 130.47 Z" />
</g>
<g id="#5158faff">
<path fill="#5158fa" opacity="1.00" d=" M 95.06 26.41 C 102.32 23.48 109.82 20.66 117.70 20.09 C 118.67 27.36 117.96 34.70 118.25 42.01 C 130.32 40.34 142.80 39.39 154.73 42.50 C 155.94 42.67 156.74 43.67 156.52 44.90 C 156.69 53.95 156.48 62.99 156.60 72.04 C 156.43 73.86 157.07 76.27 155.14 77.38 C 149.79 76.25 144.55 74.25 139.01 74.30 C 124.04 73.37 108.93 79.78 99.01 91.00 C 92.04 98.63 87.86 108.48 86.39 118.65 C 90.08 118.85 93.78 118.83 97.47 118.82 C 99.36 109.21 104.21 100.11 111.98 94.00 C 117.30 89.85 123.67 86.44 130.55 86.24 C 130.82 89.84 130.80 93.45 130.57 97.06 C 120.80 99.64 112.20 107.18 109.60 117.11 C 106.42 127.78 110.57 139.99 119.43 146.68 C 122.61 149.45 126.75 150.56 130.46 152.39 C 131.08 163.46 130.79 174.62 130.56 185.72 C 102.74 184.23 78.65 160.27 75.43 132.84 C 72.71 114.53 79.19 95.24 92.00 81.96 C 105.43 67.70 125.89 60.65 145.27 63.37 C 145.34 59.72 145.34 56.07 145.34 52.43 C 127.75 49.82 109.32 54.70 94.85 64.92 C 81.24 74.40 71.03 88.68 66.49 104.64 C 62.32 119.10 62.84 134.84 67.90 149.00 C 73.30 164.31 84.08 177.58 97.75 186.29 C 110.24 194.23 125.21 198.16 139.98 197.45 C 156.97 196.63 173.55 189.58 185.98 177.97 C 198.57 166.31 206.86 150.09 208.83 133.03 C 212.29 105.98 198.83 77.71 175.71 63.26 C 173.19 61.45 169.90 60.52 167.98 58.00 C 167.54 54.38 167.55 50.68 168.16 47.08 C 169.41 47.33 170.64 47.70 171.81 48.21 C 188.35 55.91 202.30 69.06 210.79 85.23 C 220.49 103.35 223.20 125.12 218.08 145.04 C 212.91 165.97 199.30 184.63 180.98 196.01 C 173.50 200.88 165.06 203.97 156.57 206.58 C 156.51 214.15 156.75 221.72 156.39 229.28 C 130.85 234.48 103.49 229.32 81.30 215.75 C 61.26 203.62 45.46 184.69 37.08 162.82 C 27.40 137.70 27.69 108.84 38.05 83.98 C 48.62 58.35 69.55 37.25 95.06 26.41 M 68.30 58.27 C 52.50 74.37 42.78 96.28 41.53 118.81 C 45.18 118.83 48.82 118.83 52.46 118.79 C 53.64 107.42 56.44 96.13 61.84 85.99 C 71.18 67.64 87.58 53.25 106.73 45.81 C 106.84 41.92 106.84 38.04 106.58 34.16 C 92.13 38.99 78.86 47.30 68.30 58.27 M 41.44 130.45 C 43.08 158.42 57.77 185.18 80.45 201.60 C 98.92 215.27 122.46 221.71 145.32 219.47 C 145.35 215.83 145.35 212.19 145.29 208.56 C 138.17 208.76 130.99 209.07 123.94 207.87 C 103.65 204.94 84.76 194.02 71.76 178.22 C 60.45 164.81 53.95 147.78 52.44 130.37 C 48.77 130.31 45.10 130.30 41.44 130.45 M 86.40 130.47 C 88.59 148.98 101.65 165.87 119.38 171.92 C 119.51 168.13 119.85 164.29 119.32 160.52 C 116.22 157.62 112.11 155.92 109.20 152.74 C 102.89 146.81 99.25 138.68 97.45 130.33 C 93.76 130.31 90.08 130.29 86.40 130.47 Z" />
<path fill="#5158fa" opacity="1.00" d=" M 142.46 97.08 C 142.18 93.42 142.16 89.74 142.56 86.09 C 152.00 86.98 160.56 92.35 166.60 99.48 C 175.05 109.34 177.90 123.58 174.06 135.96 C 171.28 145.30 164.85 153.48 156.44 158.42 C 152.17 160.88 147.46 163.01 142.41 162.84 C 142.17 159.25 142.21 155.65 142.52 152.07 C 152.97 149.52 161.53 141.04 163.92 130.51 C 160.16 130.27 156.39 130.30 152.62 130.36 C 150.50 134.46 147.57 138.42 143.11 140.14 C 135.11 143.81 124.73 139.83 121.25 131.75 C 117.39 124.16 120.65 114.01 128.11 109.97 C 133.61 106.64 140.92 107.09 146.13 110.78 C 149.07 112.69 150.86 115.79 152.53 118.77 C 156.33 118.85 160.14 118.87 163.93 118.62 C 161.45 108.10 152.88 99.73 142.46 97.08 M 130.37 124.97 C 131.65 127.22 133.00 129.99 135.95 130.23 C 139.36 130.70 141.34 127.58 142.63 124.96 C 141.59 122.45 140.31 118.98 136.98 119.19 C 133.27 118.48 131.39 122.06 130.37 124.97 Z" />
</g>
</svg>

<?xml version="1.0" encoding="utf-8"?>
<!-- Generator: Adobe Illustrator 26.0.3, SVG Export Plug-In . SVG Version: 6.00 Build 0)  -->
<svg version="1.1" id="Layer_1" xmlns="http://www.w3.org/2000/svg" xmlns:xlink="http://www.w3.org/1999/xlink" x="0px" y="0px"
	 viewBox="0 0 250 250" style="enable-background:new 0 0 250 250;" xml:space="preserve">
<style type="text/css">
	.st0{fill:#FFFFFF;}
	.st1{fill:#5158FA;}
</style>
<g id="_x23_ffffffff">
	<path class="st0" d="M68.3,58.3c10.6-11,23.8-19.3,38.3-24.1c0.3,3.9,0.3,7.8,0.2,11.7C87.6,53.2,71.2,67.6,61.8,86
		c-5.4,10.1-8.2,21.4-9.4,32.8c-3.6,0-7.3,0-10.9,0C42.8,96.3,52.5,74.4,68.3,58.3z"/>
	<path class="st0" d="M130.4,125c1-2.9,2.9-6.5,6.6-5.8c3.3-0.2,4.6,3.3,5.7,5.8c-1.3,2.6-3.3,5.7-6.7,5.3
		C133,130,131.6,127.2,130.4,125z"/>
	<path class="st0" d="M41.4,130.4c3.7-0.1,7.3-0.1,11-0.1c1.5,17.4,8,34.4,19.3,47.9c13,15.8,31.9,26.7,52.2,29.6
		c7.1,1.2,14.2,0.9,21.3,0.7c0.1,3.6,0.1,7.3,0,10.9c-22.9,2.2-46.4-4.2-64.9-17.9C57.8,185.2,43.1,158.4,41.4,130.4z"/>
	<path class="st0" d="M86.4,130.5c3.7-0.2,7.4-0.2,11-0.1c1.8,8.3,5.4,16.5,11.8,22.4c2.9,3.2,7,4.9,10.1,7.8
		c0.5,3.8,0.2,7.6,0.1,11.4C101.7,165.9,88.6,149,86.4,130.5z"/>
</g>
<g id="_x23_5158faff">
	<path class="st1" d="M95.1,26.4c7.3-2.9,14.8-5.8,22.6-6.3c1,7.3,0.3,14.6,0.6,21.9c12.1-1.7,24.6-2.6,36.5,0.5
		c1.2,0.2,2,1.2,1.8,2.4c0.2,9,0,18.1,0.1,27.1c-0.2,1.8,0.5,4.2-1.5,5.3c-5.4-1.1-10.6-3.1-16.1-3.1c-15-0.9-30.1,5.5-40,16.7
		c-7,7.6-11.2,17.5-12.6,27.7c3.7,0.2,7.4,0.2,11.1,0.2c1.9-9.6,6.7-18.7,14.5-24.8c5.3-4.2,11.7-7.6,18.6-7.8
		c0.3,3.6,0.2,7.2,0,10.8c-9.8,2.6-18.4,10.1-21,20.1c-3.2,10.7,1,22.9,9.8,29.6c3.2,2.8,7.3,3.9,11,5.7c0.6,11.1,0.3,22.2,0.1,33.3
		c-27.8-1.5-51.9-25.4-55.1-52.9C72.7,114.5,79.2,95.2,92,82c13.4-14.3,33.9-21.3,53.3-18.6c0.1-3.6,0.1-7.3,0.1-10.9
		c-17.6-2.6-36,2.3-50.5,12.5C81.2,74.4,71,88.7,66.5,104.6c-4.2,14.5-3.6,30.2,1.4,44.4c5.4,15.3,16.2,28.6,29.8,37.3
		c12.5,7.9,27.5,11.9,42.2,11.2c17-0.8,33.6-7.9,46-19.5c12.6-11.7,20.9-27.9,22.9-44.9c3.5-27-10-55.3-33.1-69.8
		c-2.5-1.8-5.8-2.7-7.7-5.3c-0.4-3.6-0.4-7.3,0.2-10.9c1.2,0.2,2.5,0.6,3.6,1.1c16.5,7.7,30.5,20.8,39,37
		c9.7,18.1,12.4,39.9,7.3,59.8c-5.2,20.9-18.8,39.6-37.1,51c-7.5,4.9-15.9,8-24.4,10.6c-0.1,7.6,0.2,15.1-0.2,22.7
		c-25.5,5.2-52.9,0-75.1-13.5c-20-12.1-35.8-31.1-44.2-52.9c-9.7-25.1-9.4-54,1-78.8C48.6,58.3,69.6,37.2,95.1,26.4 M68.3,58.3
		c-15.8,16.1-25.5,38-26.8,60.5c3.7,0,7.3,0,10.9,0c1.2-11.4,4-22.7,9.4-32.8c9.3-18.3,25.7-32.7,44.9-40.2
		c0.1-3.9,0.1-7.8-0.2-11.7C92.1,39,78.9,47.3,68.3,58.3 M41.4,130.4c1.6,28,16.3,54.7,39,71.2c18.5,13.7,42,20.1,64.9,17.9
		c0-3.6,0-7.3,0-10.9c-7.1,0.2-14.3,0.5-21.3-0.7c-20.3-2.9-39.2-13.8-52.2-29.6c-11.3-13.4-17.8-30.4-19.3-47.9
		C48.8,130.3,45.1,130.3,41.4,130.4 M86.4,130.5c2.2,18.5,15.2,35.4,33,41.4c0.1-3.8,0.5-7.6-0.1-11.4c-3.1-2.9-7.2-4.6-10.1-7.8
		c-6.3-5.9-9.9-14.1-11.8-22.4C93.8,130.3,90.1,130.3,86.4,130.5z"/>
	<path class="st1" d="M142.5,97.1c-0.3-3.7-0.3-7.3,0.1-11c9.4,0.9,18,6.3,24,13.4c8.4,9.9,11.3,24.1,7.5,36.5
		c-2.8,9.3-9.2,17.5-17.6,22.5c-4.3,2.5-9,4.6-14,4.4c-0.2-3.6-0.2-7.2,0.1-10.8c10.4-2.6,19-11,21.4-21.6
		c-3.8-0.2-7.5-0.2-11.3-0.1c-2.1,4.1-5,8.1-9.5,9.8c-8,3.7-18.4-0.3-21.9-8.4c-3.9-7.6-0.6-17.7,6.9-21.8c5.5-3.3,12.8-2.9,18,0.8
		c2.9,1.9,4.7,5,6.4,8c3.8,0.1,7.6,0.1,11.4-0.1C161.4,108.1,152.9,99.7,142.5,97.1 M130.4,125c1.3,2.2,2.6,5,5.6,5.3
		c3.4,0.5,5.4-2.6,6.7-5.3c-1-2.5-2.3-6-5.7-5.8C133.3,118.5,131.4,122.1,130.4,125z"/>
</g>
</svg>
